!!!!SEGMENT: pl-kk--kk-i-11--009_anonim--veni-in-hortum-meum.krn
!!!cenid: 16xx:1248
!!!COM: Anonim
!!!COM-rismID:
!!!CDT:
!!!CNT:
!!!OTL: Veni in hortum meum
!!!PDT:
!!!AGN: Sacred
!!!SMS-siglum: PL-Kk
!!!SMS-shelfmark: Kk.I.11
!!!SMS-shelfwork: 009 W
!!!SMS-variant:
!!!SMS-altvar:
!!!NIFC-rismSourceID: 1001154159
!!!NIFC-islandoraID: pl-kk:2582
!!!URL-pdf-islandora: https://repozytorium.nifc.pl/islandora/object/pl-kk%3A2582/datastream/PDF/view
!!!URL-scan: https://polish.musicsources.pl/pl/lokalizacje/galeria/rekopisy/5745 @EN{Scan on Polish Music Herritage in Open Access Website} @PL{Skany w portalu Dziedzictwo Muzyki Polskiej w otwartym dostępie}
!!!ONB-nifc: UWAGA: T (skan 0019), B (0020). Następny utwór: Nigra sum
!!!AIN: 1 empty 1 tenor
!!!key:
**kern	**text	**kern	**text
*part2	*part2	*part1	*part1
*staff2	*staff2	*staff1	*staff1
*Iempty	*	*Itenor	*
*I"Baſſus	*	*I"[Tenor]	*
*I'B	*	*I'T	*
*clefC4	*	*clefC3	*
*k[]	*	*k[]	*
*g:	*	*g:	*
*M2/1	*	*M2/1	*
*met(c|)	*	*met(c|)	*
=1-	=1-	=1-	=1-
!	!	!LO:TX:a:t=1	!
0r	.	1r	.
.	.	1g	Ve-
=2-	=2-	=2-	=2-
1r	.	2.e	-ni
.	.	4d	in
1c	Ve-	4c	hor-
.	.	4d	.
.	.	4e	.
.	.	4c	.
=3-	=3-	=3-	=3-
2.A/	-ni	2d	.
.	.	2c	-tu(m)
4A/	in	.	.
4F	hor-	1c	me-
4G	.	.	.
4A/	.	.	.
4B	.	.	.
=4-	=4-	=4-	=4-
2c	-tu(m)	1c	-u(m)
2c	me-	.	.
*	*	*	*ij
1G	-u(m)	1d	Ve-
=5-	=5-	=5-	=5-
2r	.	2B	-ni
*	*ij	*	*
2G	Ve-	2G	in
2E	-ni	2G	hor-
2c	in	2c/	-tu(m)
=6-	=6-	=6-	=6-
2.F	hor-	2.c/	me-
4G	.	4B	.
4A/	.	4c	.
4B	.	4d	.
2c	-tu(m)	4e	.
.	.	8dL	.
.	.	8cJ	.
!	!	!LO:LB:g=original	!
=7-	=7-	=7-	=7-
1G	me-	4B	.
.	.	2c/	.
.	.	4B	.
1C	-u(m)	2c/	-u(m)
*	*Xij	*	*Xij
.	.	1c	ſo-
=8-	=8-	=8-	=8-
!LO:TX:a:t=3	!	!	!
0r	.	.	.
.	.	2A/	-ror
.	.	2B	me-
.	.	2c/	-a
=9-	=9-	=9-	=9-
1r	.	1A	ſpon-
!LO:LB:g=original	!	!	!
2r	.	2G	-ſa
*	*	*	*ij
2c	So-	1g	ſo-
=10-	=10-	=10-	=10-
2c	-ror	.	.
2G	.	2g	-ror
2B-X	me-	2f	me-
2c	-a	2e	-a
=11-	=11-	=11-	=11-
1G	Spon-	1d	ſpon-
1C	-ſa	1e	-ſa
*	*	*	*Xij
=12-	=12-	=12-	=12-
2G	Meſ-	2B	Meſ-
4G	-ſu-	2B	-ſu-
4G	-i	.	.
2D	Mir-	1d	-i
2D	-rha(m)	.	.
=13-	=13-	=13-	=13-
2F	Meſ-	2c/	Mir-
4F	-ſu-	2c/	-rha(m)
4F	-i	.	.
*	*	*	*ij
2c	Mir-	2.c/	Meſ-
2c	-rha(m)	.	.
.	.	4B	-ſu-
=14-	=14-	=14-	=14-
2G	me-	1B	-i
2G	-a(m)	.	.
*	*ij	*	*
2E	Meſ-	1B	Mir-
4E	-ſu-	.	.
4E	-i	.	.
!	!	!LO:LB:g=original	!
=15-	=15-	=15-	=15-
2A/	Mir-	1c	-rha(m)
2A/	-rha(m)	.	.
*lig	*	*	*Xij
!LO:LB:g=original	!	!	!
1D	me-	2d	me-
.	.	4d	-(am)
.	.	4d	Meſ-
=16-	=16-	=16-	=16-
1F	.	4c/	-ſu-
*Xlig	*	*	*
.	.	4c/	-i
.	.	2c/	Mir-
1C	-a(m)	1c	-rha(m)
*	*Xij	*	*
=17-	=17-	=17-	=17-
00r	.	2r	.
.	.	2c/	cum
.	.	2.c/	a-
.	.	4B	-ro-
=18-	=18-	=18-	=18-
.	.	2c/	-ma-
.	.	2d	-ti-
.	.	1A	-b(us)
=19-	=19-	=19-	=19-
1r	.	1d	me-
2r	.	2c/	-is
*	*	*	*ij
2c	Cum	2g	cum
=20-	=20-	=20-	=20-
2.c	a-	2.g	a-
4B	-ro-	4g	-ro-
2c	-ma-	2g	-ma-
2d	-ti-	2f	-ti-
=21-	=21-	=21-	=21-
1A	-b(us)	1e	-b(us)
1d	me-	4f	.
.	.	4e	.
.	.	2d	me-
=22-	=22-	=22-	=22-
2c	-is	2e	-is
*	*ij	*	*
2G	Cum	2d	cum
!	!	!LO:LB:g=original	!
2.A/	a-	2.c/	a-
4G	-ro-	4B	-ro-
=23-	=23-	=23-	=23-
2A/	-ma-	2c/	-ma-
2D	-ti-	2d	-ti-
2G	-b(us)	2d	-b(us)
2E	.	2e	.
=24-	=24-	=24-	=24-
2.F	me-	2c/	me-
.	.	1d	.
4G	.	.	.
1A	.	.	.
.	.	2c/	.
=25-	=25-	=25-	=25-
1D	-is	1d	-is
*	*Xij	*	*Xij
!LO:LB:g=original	!	!	!
2r	.	1r	.
2D	Com-	.	.
=26-	=26-	=26-	=26-
1D	-me-	1d	Co-
1G	-di	2d	-me-
.	.	2d	-di
=27-	=27-	=27-	=27-
1E	fa-	2e	fa-
.	.	2B	.
1F	-vum	2A/	-vum
.	.	2.a	me-
=28-	=28-	=28-	=28-
1D	me-	.	.
.	.	4g	.
.	.	2f	.
0A	.	2e	.
.	.	2d	.
=29-	=29-	=29-	=29-
.	.	1e	.
1D	-um	2d	-um
.	.	2d	cum
=30-	=30-	=30-	=30-
1r	.	4G	mel-
*	*	*custos:d	*
.	.	4G	-le
!	!	!LO:LB:g=original	!
.	.	2d	me-
1G	cum	2d	-o
.	.	2g	cu(m)
=31-	=31-	=31-	=31-
4c	Mel-	4g	Mel-
4e	-le	4g	-le
2d	me-	2f	Me-
1G	-o	1g	-o
=32-	=32-	=32-	=32-
00r	.	4c/	bi-
.	.	4c/	-bi
.	.	2f	Vi-
.	.	4f	-nu(m)
.	.	4c/	cu(m)
.	.	4d	la-
.	.	4A/	-cte
=33-	=33-	=33-	=33-
!	!	!LO:TX:a:t=P:problem=♭ above	!
.	.	1B-X	me-
.	.	1A	-o
=34-	=34-	=34-	=34-
*	*	*	*ij
4F	bi-	4c/	bi-
4F	-bi	4c/	-bi
2B-X	Vi-	2d	vi-
4B-	-nu(m)	4d/	-nu(m)
4F	cu(m)	4c/	cu(m)
4G	la-	4c/	la-
4D	-cte	4f	-cte
=35-	=35-	=35-	=35-
2G	me-	2e	me-
!	!	!LO:TX:t=P:problem=kreska pseudotaktowa	!
!	!	!LO:SIC:v:s=2e	!
2c	-o	2d	-o
*	*	*	*Xij
0G	Com-	0d	co(m)-
=36-	=36-	=36-	=36-
.	.	.	.
!LO:LB:g=original	!	!	!
1.c	-me-	1.e	-me-
=37-	=37-	=37-	=37-
.	.	.	.
2c	-di-	2e	-di-
*	*	*custos:d	*
1c	-te	1e	-te
!	!	!LO:LB:g=original	!
=38-	=38-	=38-	=38-
0G	a-	2.d	a-
.	.	4c/	.
.	.	1B-X	.
=39-	=39-	=39-	=39-
0D	-mi-	2A/	.
!	!	!LO:TX:a:t=P:problem=♭ above	!
.	.	2B-X	.
.	.	1A	-mi-
=40-	=40-	=40-	=40-
!	!	!LO:TX:b:t=P:problem=♮ below	!
1G	-ci	1B	-ci
=41:|!|-:-	=41:|!|-:-	=41:|!|-:-	=41:|!|-:-
*M3/1	*	*M3/1	*
*col	*	*	*
!	!	!LO:N:vis=00	!
0c	et	0.r	.
!!LO:TX:t=P:problem:w źródle zmiana pulsu oznaczona za pomocą koloracji
1d	i-	.	.
=42-	=42-	=42-	=42-
0c	-ne-	0.ryy	.
1B	-bri-	.	.
=43-	=43-	=43-	=43-
0c	-a-	0.ryy	.
1d	-mi-	.	.
*Xcol	*	*	*
=44-	=44-	=44-	=44-
!LO:N:vis=1	!	!	!
0.A	-ni	0.ryy	.
=45-	=45-	=45-	=45-
*	*	*col	*
!LO:N:vis=00	!	!	!
0.r	.	0A	Et
.	.	1d	i-
=46-	=46-	=46-	=46-
0.ryy	.	0c	-ne-
.	.	1B	-bri-
=47-	=47-	=47-	=47-
0.ryy	.	0c	-a-
.	.	1d	-mi-
*	*	*Xcol	*
=48-	=48-	=48-	=48-
!	!	!LO:N:vis=1	!
0.ryy	.	0.A	-ni
=49-	=49-	=49-	=49-
*col	*	*col	*
*	*ij	*	*ij
0D	Et	0d	Et
1G	i-	1d	i-
=50-	=50-	=50-	=50-
0c	-ne-	0e	-ne-
1d	-bri-	1d	-bri-
=51-	=51-	=51-	=51-
0A	-a-	0c	-a-
1A	-mi-	1c	-mi-
*Xcol	*	*Xcol	*
=52-	=52-	=52-	=52-
!LO:N:vis=1	!	!LO:N:vis=1	!
0.D	-ni	0.d	-ni
*	*Xij	*	*Xij
=53-	=53-	=53-	=53-
*M2/1	*	*M2/1	*
*custos:D	*	*	*
!!LO:TX:t=P:problem:w źródle zmiana pulsu oznaczona przez brak kolorowania
0G	cha-	2.d	Cha-
.	.	4c/	.
!	!	!LO:TX:a:t=P:problem=♭ above	!
.	.	1B-	.
!LO:LB:g=original	!	!	!
=54-	=54-	=54-	=54-
1.D	-riſ-	2A	.
!	!	!LO:TX:a:t=P:problem=♭ above	!
.	.	2B-	-riſ-
.	.	1A	-ſi-
2D	-ſi-	.	.
=55-	=55-	=55-	=55-
1G	-mi	1B	-mi
==	==	==	==
*-	*-	*-	*-
!!!system-decoration: [(s1,s2)]
!!!RDF**kern: > = above
!!!RDF**kern: < = below
!!!ENC: Kamil Watkowski
!!!END: 2021-07-10
